X: 20379
T: John D. Burgess
R: jig
M: 6/8
K: Dmajor
f3 g>fe|d3 A3|d2 e f2 a|a>gf e2 A|
f3 g>fe|d3 c2 B|A>df a>Ag|f2 e d2:|
f2 d e2 B|d>cB A3|d2 e f2 a|a>gf e2 A|
1 f2 d e2 B|d>cB A3|A>df a>Ag|f2e d2:|
2 f3 g>fe|d3 c2 B|A>df a>Ag|f2 e d2||
A>df a2 g|f>de f3|A>ce g2 f|e>Bc d2 B|
A>df a2 g|f>de f2 B|A>df a>Ag|f2 e d2:|
a2 a a2 g|f3 A3|d2 e f2 a|1 a>gf e2 g|
a2 a a2 g|f3 d2 B|A>df a>Ag|f2 e d2:|
f3 g>fe|d3 c2 B|A>df a>Ag|f2 e d2||

